X:592
T:Rolling in the Rye Grass
M:C|
L:1/8
K:D
"D"A2 AF DFAF|"G"G2 BG DGBG|"D"A2 AF DFAF|"G"GBAF "D"EF/E/ D2|
A2 AF DFAF|"G"G2 BG DGBG|"D"A2 AF DFAF|"G"GBAF "D"EF/E/ D2:|
|:"D"ABde f2 fd|"G"g2 ge "D"fedB|ABde fefg|afdf "A"ef/e/ "D"d2|
"D"ABde f2 fd|"G"g2 ge "D"fedB|ABde fefg|afdf "A"ef/e/ "D"d2:|
